X: 1
T: Drumlanrig Castle
R: strathspey
S: http://www.sfco.puckette.com/tunes.abc
M: 4/4
L: 1/8
K: G
B |\
"G"D>E G>A B>A B>e | "(D)"d>A "G"B>G "C"E/E/E E>G |\
"G"D>E G>A B>AB>d | "C"e/f/g "D"d>g "G"B<G G :|
e |\
"G"d/c/B/c/ d>g  d>B G>B | "C"c/d/e "G"B/c/d "Am"A<E "(D7)"E>e |\
"G"d/c/B/c/ d>g  d>B g>B | "C"c/d/e "D"A>d "G"B<G G> ||
e |\
"G"d/c/B/c/ d>g  d>B G>B | "C"c/d/e "G"B/c/d "Am"A<E "(D7)"E>G |\
"G"D>E G>A B>A B>d | "C"e/f/g "D"d>g "G"B<G G |]
